.icons/Gruvbox-Plus-Dark/apps/16/multimc.svg

<svg width="16" height="16" version="1.1" xmlns="http://www.w3.org/2000/svg">
  <defs>
    <style type="text/css" id="current-color-scheme">.ColorScheme-Text { color:#ebdbb2; } .ColorScheme-Highlight { color:#458588; }</style>
  </defs>
  <path class="ColorScheme-Text" fill="currentColor"  d="m3.992 4c-1.386 0-3.992 1.151-3.992 4 0 2.207 1.793 4 4 4h8e-3c1.387 0 2.504-0.703 3.32-1.484-0.55-0.6503-0.8325-1.137-1.149-1.696-0.565 0.614-1.319 1.18-2.302 1.18s-1.878-0.895-1.878-2 0.895-2 2-2h8e-3c1.758 0 3.101 2.438 3.101 2.438 0.3674 0.61 0.7757 1.184 1.235 1.733 0.789 0.865 2.015 1.829 3.656 1.829 1.263 0.01598 3.994-1.08 4-3.992 7e-3 -1.065-0.415-2.087-1.172-2.836-0.745-0.753-1.761-1.176-2.994-1.174s-2.338 0.682-3.148 1.447c0.6347 0.7539 1.039 1.509 1.135 1.696 0.536-0.582 1.278-1.141 2.178-1.141 1.104 0 2 0.895 2 2s-0.896 2-2 2c-0.828 0-1.594-0.54-2.184-1.18s-0.914-1.28-0.914-1.28c-0.9425-1.823-2.481-3.54-4.903-3.54z"/>
</svg>

<svg xmlns="http://www.w3.org/2000/svg" style="isolation:isolate" width="16" height="16" viewBox="0 0 16 16">
 <defs>
  <style id="current-color-scheme" type="text/css">
   .ColorScheme-Text { color:#ebdbb2; } .ColorScheme-Highlight { color:#458588; }
  </style>
  <linearGradient id="arrongin" x1="0%" x2="0%" y1="0%" y2="100%">
   <stop offset="0%" style="stop-color:#d79921; stop-opacity:1"/>
   <stop offset="100%" style="stop-color:#b57614; stop-opacity:1"/>
  </linearGradient>
  <linearGradient id="aurora" x1="0%" x2="0%" y1="0%" y2="100%">
   <stop offset="0%" style="stop-color:#83a598; stop-opacity:1"/>
   <stop offset="100%" style="stop-color:#b16286; stop-opacity:1"/>
  </linearGradient>
  <linearGradient id="fitdance" x1="0%" x2="0%" y1="0%" y2="100%">
   <stop offset="0%" style="stop-color:#8ec07c; stop-opacity:1"/>
   <stop offset="100%" style="stop-color:#458588; stop-opacity:1"/>
  </linearGradient>
  <linearGradient id="oomox" x1="0%" x2="0%" y1="0%" y2="100%">
   <stop offset="0%" style="stop-color:#458588; stop-opacity:1"/>
   <stop offset="100%" style="stop-color:#928374; stop-opacity:1"/>
  </linearGradient>
  <linearGradient id="rainblue" x1="0%" x2="0%" y1="0%" y2="100%">
   <stop offset="0%" style="stop-color:#b8bb26; stop-opacity:1"/>
   <stop offset="100%" style="stop-color:#076678; stop-opacity:1"/>
  </linearGradient>
  <linearGradient id="sunrise" x1="0%" x2="0%" y1="0%" y2="100%">
   <stop offset="0%" style="stop-color: #fe8019; stop-opacity:1"/>
   <stop offset="100%" style="stop-color: #fabd2f; stop-opacity:1"/>
  </linearGradient>
  <linearGradient id="telinkrin" x1="0%" x2="0%" y1="0%" y2="100%">
   <stop offset="0%" style="stop-color: #83a598; stop-opacity:1"/>
   <stop offset="100%" style="stop-color: #83a598; stop-opacity:1"/>
  </linearGradient>
  <linearGradient id="60spsycho" x1="0%" x2="0%" y1="0%" y2="100%">
   <stop offset="0%" style="stop-color: #fb4934; stop-opacity:1"/>
   <stop offset="25%" style="stop-color: #fabd2f; stop-opacity:1"/>
   <stop offset="50%" style="stop-color: #fe8019; stop-opacity:1"/>
   <stop offset="100%" style="stop-color: #689d6a; stop-opacity:1"/>
  </linearGradient>
  <linearGradient id="90ssummer" x1="0%" x2="0%" y1="0%" y2="100%">
   <stop offset="0%" style="stop-color: #b16286; stop-opacity:1"/>
   <stop offset="20%" style="stop-color: #8ec07c; stop-opacity:1"/>
   <stop offset="50%" style="stop-color: #fabd2f; stop-opacity:1"/>
   <stop offset="100%" style="stop-color: #458588; stop-opacity:1"/>
  </linearGradient>
  <linearGradient id="cyberneon" x1="0%" x2="0%" y1="0%" y2="100%">
    <stop offset="0" style="stop-color:#83a598; stop-opacity:1"/>
    <stop offset="1" style="stop-color:#b16286; stop-opacity:1"/>
  </linearGradient>
 </defs>
 <path style="fill:currentColor" class="ColorScheme-Text" d="M 3.992 4 C 3.926 4 3.861 4.008 3.797 4.023 C 1.687 4.13 0 5.863 0 8 C 0 10.207 1.793 12 4 12 L 4.008 12 C 5.395 12 6.512 11.297 7.328 10.516 C 6.944 10.062 6.604 9.573 6.312 9.055 C 6.277 9.001 6.246 8.945 6.219 8.887 C 6.204 8.866 6.191 8.843 6.179 8.82 C 5.614 9.434 4.86 10 4.009 10 L 4 10 C 2.895 10 2 9.105 2 8 C 2 6.895 2.895 6 4 6 L 4.008 6 C 5.766 6 7.109 8.438 7.109 8.438 C 7.16 8.539 7.227 8.633 7.305 8.711 C 7.418 8.921 7.675 9.445 8.344 10.171 C 9.133 11.036 10.359 12 12 12 C 12.079 12.001 12.157 11.992 12.234 11.973 C 14.324 11.848 15.996 10.125 16 8.008 C 16.007 6.943 15.585 5.921 14.828 5.172 C 14.083 4.419 13.067 3.996 12.008 4 L 12 4 C 10.602 4 9.496 4.68 8.687 5.445 C 9.081 5.913 9.427 6.42 9.72 6.957 C 9.743 6.992 9.763 7.027 9.782 7.063 L 9.822 7.141 C 10.358 6.559 11.1 6 12 6 C 13.104 6 14 6.895 14 8 C 14 9.105 13.104 10 12 10 C 11.172 10 10.406 9.46 9.816 8.82 C 9.226 8.18 8.902 7.54 8.902 7.54 C 8.856 7.451 8.799 7.369 8.73 7.297 L 8.727 7.297 C 8.512 6.84 7.09 4 4.007 4 L 3.992 4 Z"/>
</svg>
